src/images/icon/todo2.svg

<svg width="60" height="60" viewBox="0 0 60 60" fill="none" xmlns="http://www.w3.org/2000/svg">
<g clip-path="url(#clip0)">
<path d="M54.4068 27.4577C54.4068 24.0881 51.6752 21.356 48.3051 21.356H35.0847V6.10181H56.4407C58.1255 6.10181 59.4915 7.46783 59.4915 9.15265V26.4408C59.4409 27.8778 59.14 29.295 58.6017 30.6287C57.6965 33.0072 55.4153 34.5783 52.8704 34.5764H51.3559L53.3605 31.2355C54.0453 30.0944 54.4068 28.7885 54.4068 27.4577Z" fill="#FEC830"/>
<path d="M12.7119 34.5763C12.7119 34.4114 8.64407 32.5424 8.6674 30.0089C8.69273 27.3558 11.2882 25.4237 13.9473 25.4237H32.0339C33.7187 25.4237 35.0847 24.0577 35.0847 22.3729V3.05085C35.0847 1.36603 33.7187 0 32.0339 0H3.55932C1.8745 0 0.508471 1.36603 0.508471 3.05085V25.4237C0.506982 26.0697 0.548196 26.7153 0.632611 27.3558C1.14357 30.8869 3.98487 33.6214 7.53277 33.9968L12.7119 34.5763Z" fill="#FEC830"/>
<path d="M28.9831 59.9998V55.932C28.9831 53.6856 27.1617 51.8642 24.9153 51.8642C22.6688 51.8642 20.8475 50.0429 20.8475 47.7964V47.2646C25.0503 45.7789 27.5713 41.4812 26.8176 37.0877C26.0638 32.6941 22.2542 29.4829 17.7966 29.4829C13.339 29.4829 9.52993 32.6941 8.77615 37.0877C8.02238 41.4812 10.5429 45.7789 14.7458 47.2646V47.7964C14.7458 50.0429 12.9244 51.8642 10.678 51.8642C8.43154 51.8642 6.61017 53.6856 6.61017 55.932V59.9998H28.9831Z" fill="#FFF5E0"/>
<path d="M56.4407 59.9998V55.932C56.4407 53.6856 54.6193 50.8473 52.3729 50.8473C50.1265 50.8473 48.3051 50.0429 48.3051 47.7964V47.2646C52.5079 45.7789 55.029 41.4812 54.2752 37.0877C53.5214 32.6941 49.7118 29.4829 45.2542 29.4829C40.7966 29.4829 36.9876 32.6941 36.2338 37.0877C35.48 41.4812 38.0005 45.7789 42.2034 47.2646V47.7964C42.2034 50.0429 40.382 50.8473 38.1356 50.8473C35.8892 50.8473 34.0678 53.6856 34.0678 55.932V59.9998H56.4407Z" fill="#FFF5E0"/>
<path d="M17.7966 29.4917C12.7417 29.4917 8.64407 33.5893 8.64407 38.6442H12.7119L15.7627 36.6103L18.8136 38.6442H26.9492C26.9492 33.5893 22.8516 29.4917 17.7966 29.4917Z" fill="#343434"/>
<path d="M46.2712 29.4917H34.0678C34.0673 31.7585 35.0162 33.922 36.6846 35.4573C38.1838 36.8522 40.1556 37.6273 42.2034 37.6273H54.3854C54.3904 35.4717 53.5378 33.4031 52.0153 31.8767C50.4934 30.3507 48.4267 29.4927 46.2712 29.4917Z" fill="#343434"/>
<path d="M35.0847 6.10181H36.1017V21.356H35.0847V6.10181Z" fill="#EDB413"/>
<path d="M5.59322 4.06787H24.9153C25.4769 4.06787 25.9322 4.52321 25.9322 5.08482C25.9322 5.64643 25.4769 6.10177 24.9153 6.10177H5.59322C5.03161 6.10177 4.57627 5.64643 4.57627 5.08482C4.57627 4.52321 5.03161 4.06787 5.59322 4.06787Z" fill="white"/>
<path d="M5.59322 8.13574H9.66102C10.2226 8.13574 10.678 8.59109 10.678 9.15269C10.678 9.7143 10.2226 10.1696 9.66102 10.1696H5.59322C5.03161 10.1696 4.57627 9.7143 4.57627 9.15269C4.57627 8.59109 5.03161 8.13574 5.59322 8.13574Z" fill="white"/>
<path d="M13.7288 8.13574H26.9492C27.5108 8.13574 27.9661 8.59109 27.9661 9.15269C27.9661 9.7143 27.5108 10.1696 26.9492 10.1696H13.7288C13.1672 10.1696 12.7119 9.7143 12.7119 9.15269C12.7119 8.59109 13.1672 8.13574 13.7288 8.13574Z" fill="white"/>
<path d="M5.59322 12.2036C6.15483 12.2036 6.61017 12.659 6.61017 13.2206C6.61017 13.7822 6.15483 14.2375 5.59322 14.2375C5.03161 14.2375 4.57627 13.7822 4.57627 13.2206C4.57627 12.659 5.03161 12.2036 5.59322 12.2036Z" fill="white"/>
<path d="M9.66102 12.2036H15.7627C16.3243 12.2036 16.7797 12.659 16.7797 13.2206C16.7797 13.7822 16.3243 14.2375 15.7627 14.2375H9.66102C9.09941 14.2375 8.64407 13.7822 8.64407 13.2206C8.64407 12.659 9.09941 12.2036 9.66102 12.2036Z" fill="white"/>
<path d="M19.8305 12.2036H26.9492C27.5108 12.2036 27.9661 12.659 27.9661 13.2206C27.9661 13.7822 27.5108 14.2375 26.9492 14.2375H19.8305C19.2689 14.2375 18.8136 13.7822 18.8136 13.2206C18.8136 12.659 19.2689 12.2036 19.8305 12.2036Z" fill="white"/>
<path d="M43.2203 11.1865H55.4237C55.9853 11.1865 56.4407 11.6419 56.4407 12.2035C56.4407 12.7651 55.9853 13.2204 55.4237 13.2204H43.2203C42.6587 13.2204 42.2034 12.7651 42.2034 12.2035C42.2034 11.6419 42.6587 11.1865 43.2203 11.1865Z" fill="white"/>
<path d="M39.1525 15.2542H44.2373C44.7989 15.2542 45.2542 15.7095 45.2542 16.2711C45.2542 16.8327 44.7989 17.288 44.2373 17.288H39.1525C38.5909 17.288 38.1356 16.8327 38.1356 16.2711C38.1356 15.7095 38.5909 15.2542 39.1525 15.2542Z" fill="white"/>
<path d="M48.3051 15.2542H55.4237C55.9853 15.2542 56.4407 15.7095 56.4407 16.2711C56.4407 16.8327 55.9853 17.288 55.4237 17.288H48.3051C47.7435 17.288 47.2881 16.8327 47.2881 16.2711C47.2881 15.7095 47.7435 15.2542 48.3051 15.2542Z" fill="white"/>
<path d="M39.1525 11.1865C39.7141 11.1865 40.1695 11.6419 40.1695 12.2035C40.1695 12.7651 39.7141 13.2204 39.1525 13.2204C38.5909 13.2204 38.1356 12.7651 38.1356 12.2035C38.1356 11.6419 38.5909 11.1865 39.1525 11.1865Z" fill="white"/>
<path d="M24.9153 51.8645C24.0925 51.865 23.2895 51.6147 22.6127 51.1465L17.7966 53.8984L12.9805 51.1465C12.3037 51.6147 11.5008 51.865 10.678 51.8645C8.43154 51.8645 6.61017 53.6859 6.61017 55.9323V60.0001H28.9831V55.9323C28.9831 53.6859 27.1617 51.8645 24.9153 51.8645Z" fill="#FEC830"/>
<path d="M52.3729 50.8475C51.8634 50.8505 51.3549 50.8003 50.8554 50.697L45.2542 53.8983L39.6531 50.697C39.154 50.8003 38.6451 50.8505 38.1356 50.8475C35.8892 50.8475 34.0678 53.6858 34.0678 55.9322V60H56.4407V55.9322C56.4407 53.6858 54.6193 50.8475 52.3729 50.8475Z" fill="#FEC830"/>
</g>
<defs>
<clipPath id="clip0">
<rect width="60" height="60" fill="white"/>
</clipPath>
</defs>
</svg>

<svg width="60" height="60" fill="none" xmlns="http://www.w3.org/2000/svg"><g clip-path="url(#clip0)"><path d="M54.407 27.458a6.102 6.102 0 00-6.102-6.102h-13.22V6.102H56.44a3.051 3.051 0 013.05 3.05v17.289a12.35 12.35 0 01-.89 4.188 6.127 6.127 0 01-5.73 3.947h-1.515l2.005-3.34a7.342 7.342 0 001.046-3.778zM12.712 34.576c0-.165-4.068-2.034-4.045-4.567.026-2.653 2.621-4.585 5.28-4.585h18.087a3.05 3.05 0 003.05-3.051V3.05A3.051 3.051 0 0032.035 0H3.559A3.051 3.051 0 00.51 3.05v22.374c-.002.646.04 1.291.124 1.932a7.802 7.802 0 006.9 6.64l5.179.58z" fill="#FEC830"/><path d="M28.983 60v-4.068a4.068 4.068 0 00-4.068-4.068 4.068 4.068 0 01-4.067-4.068v-.531a9.153 9.153 0 10-6.102 0v.531a4.068 4.068 0 01-4.068 4.068 4.068 4.068 0 00-4.068 4.068V60h22.373zM56.44 60v-4.068c0-2.246-1.82-5.085-4.067-5.085-2.246 0-4.068-.804-4.068-3.05v-.532a9.153 9.153 0 10-6.102 0v.531c0 2.247-1.821 3.051-4.067 3.051-2.247 0-4.068 2.839-4.068 5.085V60H56.44z" fill="#FFF5E0"/><path d="M17.797 29.492a9.152 9.152 0 00-9.153 9.152h4.068l3.05-2.034 3.052 2.034h8.135a9.152 9.152 0 00-9.152-9.152zM46.271 29.492H34.068c0 2.267.948 4.43 2.617 5.965a8.101 8.101 0 005.518 2.17h12.182a8.116 8.116 0 00-8.114-8.135z" fill="#343434"/><path d="M35.085 6.102h1.017v15.254h-1.017V6.102z" fill="#EDB413"/><path d="M5.593 4.068h19.322a1.017 1.017 0 010 2.034H5.593a1.017 1.017 0 010-2.034zM5.593 8.136h4.068a1.017 1.017 0 010 2.034H5.593a1.017 1.017 0 010-2.034zM13.729 8.136h13.22a1.017 1.017 0 010 2.034H13.73a1.017 1.017 0 010-2.034zM5.593 12.204a1.017 1.017 0 110 2.034 1.017 1.017 0 010-2.034zM9.661 12.204h6.102a1.017 1.017 0 010 2.034H9.66a1.017 1.017 0 010-2.034zM19.83 12.204h7.12a1.017 1.017 0 010 2.034h-7.12a1.017 1.017 0 010-2.034zM43.22 11.187h12.204a1.017 1.017 0 010 2.033H43.22a1.017 1.017 0 010-2.034zM39.153 15.254h5.084a1.017 1.017 0 010 2.034h-5.084a1.017 1.017 0 010-2.034zM48.305 15.254h7.119a1.017 1.017 0 010 2.034h-7.119a1.017 1.017 0 010-2.034zM39.153 11.187a1.017 1.017 0 110 2.034 1.017 1.017 0 010-2.034z" fill="#fff"/><path d="M24.915 51.864c-.822.001-1.625-.25-2.302-.717l-4.816 2.751-4.817-2.752a4.042 4.042 0 01-2.302.718 4.068 4.068 0 00-4.068 4.068V60h22.373v-4.068a4.068 4.068 0 00-4.068-4.068zM52.373 50.847a7.28 7.28 0 01-1.518-.15l-5.6 3.201-5.602-3.201c-.499.103-1.008.153-1.517.15-2.247 0-4.068 2.839-4.068 5.085V60H56.44v-4.068c0-2.246-1.822-5.085-4.068-5.085z" fill="#FEC830"/></g><defs><clipPath id="clip0"><path fill="#fff" d="M0 0h60v60H0z"/></clipPath></defs></svg>
